16x16/apps/appimagekit-rclone-browser.svg

<svg xmlns="http://www.w3.org/2000/svg" width="16" height="16" version="1">
 <path style="fill:#aee5ff" d="M 13.443359 6.5566406 C 13.354451 7.2185896 13.144921 7.8762804 12.794922 8.4960938 L 12.261719 9.4414062 A 2 2 0 0 1 12.757812 10.011719 A 2 2 0 0 1 12.025391 12.744141 A 2 2 0 0 1 9.3632812 12.121094 C 9.3630453 12.120957 9.3554688 12.117187 9.3554688 12.117188 L 9.2949219 12.011719 L 8.2109375 10.134766 L 6.5058594 10.158203 L 5.6113281 11.634766 L 6.6445312 13.417969 C 8.0547458 15.860528 11.134548 16.72215 13.525391 15.341797 C 15.916436 13.961326 16.712947 10.860528 15.302734 8.4179688 C 14.838305 7.6135527 14.185854 6.9943872 13.443359 6.5566406 z"/>
 <path style="fill:#64cefe" d="M 8.5585938,1.0214844 C 6.6221571,0.84306374 4.6539613,1.7952983 3.640625,3.5898438 3.2239686,4.3277119 3.0277334,5.1213592 3.0117188,5.9042969 3.6603268,5.6467229 4.3668941,5.5019545 5.1074219,5.5019531 H 6.09375 C 6.1303064,5.2899251 6.2029147,5.1856534 6.3085938,4.996836 6.8380769,4.0607782 8.0470134,3.7189892 9.0097656,4.2331641 c 0.9184462,0.4914883 1.2874894,1.4914319 0.84375,2.4152734 5e-6,2.632e-4 0,0.00977 0,0.00977 L 9.796875,6.7617188 8.7578125,8.6015625 9.65625,10 11.373047,9.9980469 12.359375,8.25 C 13.710489,5.8572718 12.854852,2.8744074 10.447266,1.5878906 9.8453184,1.2662342 9.2040726,1.0809579 8.5585938,1.0214844 Z"/>
 <path style="fill:#2279ca" d="M 7.1679688 6 L 5.1074219 6.0019531 C 2.2869967 6.0019554 0 8.2392924 0 11 C 0 13.760941 2.2869967 16 5.1074219 16 C 6.0372506 16 6.9014653 15.74528 7.6523438 15.320312 C 7.0855223 14.881501 6.591656 14.327391 6.2109375 13.667969 L 5.7402344 12.855469 A 2 2 0 0 1 5 13 A 2 2 0 0 1 3 11 A 2 2 0 0 1 4.8710938 9.0058594 C 4.8713304 9.0057238 4.8789062 9 4.8789062 9 L 5 9 L 7.1679688 9 L 8 7.5117188 L 7.1679688 6 z"/>
</svg>

<svg xmlns="http://www.w3.org/2000/svg" width="16" height="16" version="1"><path style="fill:#aee5ff" d="M13.443 6.557a5.389 5.389 0 0 1-.648 1.94l-.533.944a2 2 0 0 1 .496.57 2 2 0 0 1-.733 2.733 2 2 0 0 1-2.662-.623l-.008-.004-.06-.105-1.084-1.877-1.705.023-.895 1.477 1.034 1.783c1.41 2.443 4.49 3.304 6.88 1.924 2.391-1.38 3.188-4.481 1.778-6.924a5.145 5.145 0 0 0-1.86-1.861z"/><path style="fill:#64cefe" d="M8.559 1.021A5.123 5.123 0 0 0 3.64 3.59a4.885 4.885 0 0 0-.63 2.314 5.666 5.666 0 0 1 2.096-.402h.987c.036-.212.109-.316.215-.505.53-.936 1.738-1.278 2.7-.764.92.492 1.288 1.492.845 2.415v.01l-.057.104-1.04 1.84.9 1.398 1.716-.002.986-1.748c1.351-2.393.496-5.376-1.912-6.662A4.964 4.964 0 0 0 8.56 1.02z"/><path style="fill:#2279ca" d="m7.168 6-2.06.002C2.286 6.002 0 8.239 0 11c0 2.76 2.287 5 5.107 5 .93 0 1.794-.255 2.545-.68a5.67 5.67 0 0 1-1.441-1.652l-.47-.813A2 2 0 0 1 5 13a2 2 0 0 1-2-2 2 2 0 0 1 1.871-1.994L4.88 9h2.289L8 7.512 7.168 6z"/></svg>
